icons/dapulse.svg

<?xml version="1.0" encoding="UTF-8" standalone="no"?>
<svg width="256px" height="253px" viewBox="0 0 256 253" version="1.1" xmlns="http://www.w3.org/2000/svg" xmlns:xlink="http://www.w3.org/1999/xlink" preserveAspectRatio="xMidYMid">
    <g>
        <path d="M256,128 C256,57.2254047 198.615193,0 128,0 C57.384807,0 0,57.2254047 0,128 C0,151.113325 6.05728518,172.79203 16.7372354,191.442092 C24.0697385,173.429639 34.7496887,152.069738 41.7633873,146.809465 C41.7633873,146.809465 58.0224159,132.144458 74.7596513,137.564134 C74.7596513,137.564134 147.287671,163.5467 166.734745,187.138232 C166.734745,187.138232 176.936488,201.96264 172.632628,216.946451 C170.879203,223.32254 164.503113,238.625156 157.330012,252.652553 C213.917808,239.422167 256,188.572852 256,128 L256,128 Z M179.646326,158.764633 C178.530511,159.561644 177.414695,160.199253 176.298879,160.67746 C172.154421,162.11208 167.372354,160.836862 164.343711,157.17061 C153.026152,143.302615 109.349938,120.986301 93.4097136,120.986301 C87.3524284,120.986301 82.5703611,116.204234 82.4109589,110.146949 C82.4109589,104.089664 87.1930262,99.3075965 93.2503113,99.1481943 C117.32005,98.988792 167.053549,125.768369 181.240349,143.302615 C185.066002,148.244085 184.428394,155.098381 179.646326,158.764633 L179.646326,158.764633 Z M210.410959,146.012453 C180.921544,109.668742 108.07472,77.6288917 71.4122042,77.7882939 C65.992528,77.7882939 61.5292653,73.4844334 61.5292653,68.0647572 C61.5292653,62.6450809 65.8331258,58.1818182 71.252802,58.1818182 C113.175592,58.0224159 191.442092,91.6562889 225.554172,133.579078 C228.901619,137.723537 228.26401,143.940224 224.119552,147.287671 C223.163138,148.084682 222.206725,148.562889 221.090909,149.041096 C217.424658,150.475716 213.120797,149.3599 210.410959,146.012453 L210.410959,146.012453 Z" fill="#010101"></path>
    </g>
</svg>

<svg xmlns="http://www.w3.org/2000/svg" viewBox="0 0 256 252.653">
  <path fill="#010101" d="M256 128C256 57.225 198.615 0 128 0 57.385 0 0 57.225 0 128c0 23.113 6.057 44.792 16.737 63.442C24.07 173.43 34.75 152.07 41.763 146.81c0 0 16.26-14.665 32.997-9.245 0 0 72.528 25.983 91.975 49.574 0 0 10.201 14.825 5.898 29.808-1.754 6.377-8.13 21.68-15.303 35.707C213.918 239.423 256 188.573 256 128zm-76.354 30.765a17.936 17.936 0 0 1-3.347 1.912c-4.145 1.435-8.927.16-11.955-3.506-11.318-13.868-54.994-36.185-70.934-36.185-6.058 0-10.84-4.782-10.999-10.84 0-6.056 4.782-10.838 10.84-10.998 24.069-.16 73.803 26.62 87.99 44.155 3.825 4.941 3.187 11.795-1.595 15.462zm30.765-12.753C180.921 109.67 108.075 77.63 71.412 77.788c-5.42 0-9.883-4.304-9.883-9.723 0-5.42 4.304-9.883 9.724-9.883 41.923-.16 120.19 33.474 154.301 75.397 3.348 4.145 2.71 10.361-1.434 13.709-.957.797-1.913 1.275-3.03 1.753-3.665 1.435-7.97.319-10.679-3.029z"/>
</svg>
